6/img/icon-house-tablet.svg

<svg width="78" height="72" viewBox="0 0 78 72" fill="none" xmlns="http://www.w3.org/2000/svg">
<path d="M30.8784 64.9389H47.3768V41.1709H30.8784V64.9389ZM44.3865 62.0549H33.8688V44.0549H44.2834V62.0549H44.3865Z" fill="#81B3D2"/>
<path d="M75.3211 39.1823L77.4865 37.0939L67.2781 27.2486V0.39779H53.0482V13.5249L38.9214 0L0.459473 37.1934L2.62489 39.2818L10.6679 31.5249V69.116H6.64638V72H72.537V69.116H67.2781V31.4254L75.3211 39.1823ZM56.0385 3.38122H64.1846V24.3646L56.0385 16.5083V3.38122ZM64.2878 69.0166H13.7613V28.5414L38.9214 4.1768L64.1846 28.5414V69.0166H64.2878Z" fill="#81B3D2"/>
<path d="M31.1879 27.0491C31.1879 31.3253 34.7969 34.806 39.1277 34.806C43.5617 34.806 47.1707 31.3253 47.1707 27.0491C47.1707 22.7728 43.5617 19.3916 39.1277 19.3916C34.6938 19.3916 31.1879 22.7728 31.1879 27.0491ZM39.1277 22.0767C41.9118 22.0767 44.2835 24.2645 44.2835 27.0491C44.2835 29.7341 42.015 32.0214 39.1277 32.0214C36.3436 32.0214 33.972 29.8336 33.972 27.0491C33.972 24.364 36.3436 22.0767 39.1277 22.0767Z" fill="#81B3D2"/>
<path d="M20.9794 41.1709H17.8859V45.0493H20.9794V41.1709Z" fill="#81B3D2"/>
<path d="M27.0631 41.1709H23.9697V45.0493H27.0631V41.1709Z" fill="#81B3D2"/>
<path d="M20.9794 47.1387H17.8859V51.0171H20.9794V47.1387Z" fill="#81B3D2"/>
<path d="M27.0631 47.1387H23.9697V51.0171H27.0631V47.1387Z" fill="#81B3D2"/>
<path d="M53.8731 41.1709H50.7797V45.0493H53.8731V41.1709Z" fill="#81B3D2"/>
<path d="M60.06 41.1709H56.9666V45.0493H60.06V41.1709Z" fill="#81B3D2"/>
<path d="M53.8731 47.1387H50.7797V51.0171H53.8731V47.1387Z" fill="#81B3D2"/>
<path d="M60.06 47.1387H56.9666V51.0171H60.06V47.1387Z" fill="#81B3D2"/>
</svg>

<svg width="78" height="72" fill="none" xmlns="http://www.w3.org/2000/svg"><path d="M30.878 64.939h16.499V41.17H30.878v23.768Zm13.508-2.884H33.87v-18h10.414v18h.103Z" fill="#81B3D2"/><path d="m75.321 39.182 2.166-2.088-10.209-9.845V.398h-14.23v13.127L38.921 0 .46 37.193l2.166 2.089 8.043-7.757v37.591H6.646V72h65.891v-2.884h-5.259v-37.69l8.043 7.756ZM56.04 3.382h8.146v20.983l-8.147-7.857V3.381Zm8.249 65.635H13.76V28.54l25.16-24.364L64.185 28.54v40.476h.103Z" fill="#81B3D2"/><path d="M31.188 27.05c0 4.275 3.609 7.756 7.94 7.756 4.434 0 8.043-3.48 8.043-7.757 0-4.276-3.61-7.657-8.043-7.657-4.434 0-7.94 3.38-7.94 7.657Zm7.94-4.973c2.784 0 5.155 2.188 5.155 4.972 0 2.685-2.268 4.972-5.155 4.972-2.784 0-5.156-2.187-5.156-4.972 0-2.685 2.372-4.972 5.156-4.972ZM20.98 41.17h-3.094v3.88h3.093v-3.88ZM27.063 41.17H23.97v3.88h3.093v-3.88ZM20.98 47.139h-3.094v3.878h3.093V47.14ZM27.063 47.139H23.97v3.878h3.093V47.14ZM53.873 41.17H50.78v3.88h3.093v-3.88ZM60.06 41.17h-3.093v3.88h3.093v-3.88ZM53.873 47.139H50.78v3.878h3.093V47.14ZM60.06 47.139h-3.093v3.878h3.093V47.14Z" fill="#81B3D2"/></svg>
